X:124
T:Morgan Rattler. RHu.124
S:R.Hughes MS,1823,Whitchurch,Shrops.
N:In the MS. this last A is not sharp
A:Whitchurch, Shropshire
Z:Tony Weatherall 2006
M:6/8
L:1/8
Q:3/8=120
R:Jig
K:D
B|:AFE EFE|FEFD2B|AFE EFE|B2A Bcd|!
AFE EFE|FEF D2B/c/|dcB cB^A|B2^A Bcd:|!
|:d2e fdB|c2d ecB|d2e fed|f2 e fga|!
d2e fdB|c2d efg|fed cB^A|B2^A Bcd:|!
|:D2d dcd|E2e ede|D2d dcd|B2A Bcd|!
D2d dcd|E2e efg|fed cB^A|B2″”^A Bcd:|

